X:1
T:Senegal, 11.11.11.8 D
T:Senegal, 11.11.11.8 D
T:Henry Lake Gilmour, 1893
T:Public Domain Courtesy of the Cyber Hymnal™
C:Henry Lake Gilmour, 1893
Z:Public Domain
Z:Courtesy of the Cyber Hymnal™
%%score ( 1 2 ) ( 3 4 )
L:1/8
Q:1/4=80
M:6/8
K:Ab
V:1 treble 
V:2 treble 
V:3 bass 
V:4 bass 
V:1
 [CE] | [Ec]>[Ec][Ec] [Ec]<[CA][EA] | [DA]>[DG][DF] [CE]2 [CE] | [DE]>[Ed][Ed] [Ed]>[Ec][EB] | %4
 [EA]>[EG][EA] [EB]2 E | [Ec]>[Ec][Ec] [Ec]<[CA][DB] | [Ec]>[CA][DF] [CE]2 E | %7
 [DF]>[EG][FA] [EG]<[Gc][GB] | [EA]3- [EA]2 | E | [Gd]>[Gd][Gd] [Gd]>[Ec][EB] | %11
 [Ec]>[Ec][Ec] [Ec]2 [EA] | [EB]>[EB][EB] [EB]>[EA][EB] | [Ec]>[CA][DF] [CE]2 E | %14
 [Bd]>[Ad][Gd] [Bd]>[Ac][GB] | [Ac]>[Ac][Ac] [Ac]2 [EA] | [GB]>[GB][GB] [GB]<!fermata![Ac][EB] | %17
 [EA]3- [EA]2 |] %18
V:2
 x | x6 | x6 | x6 | x5 E | x6 | x5 E | x6 | x5 | E | x6 | x6 | x6 | x5 E | x6 | x6 | x6 | x5 |] %18
V:3
 [A,,A,] | [A,,A,]>[A,,A,][A,,A,] [A,,A,]<[A,,A,][C,A,] | [D,F,]>[D,G,][D,A,] [A,,A,]2 [A,,A,] | %3
 [E,G,]>[E,G,][E,G,] [E,G,]>[E,A,][E,B,] | [E,C]>[E,B,][E,C] [E,G,]2 [E,G,] | %5
 [A,,A,]>[A,,A,][A,,A,] [A,,A,]<[A,,A,][A,,A,] | [A,,A,]>[A,,A,][A,,A,] [A,,A,]2 [C,A,] | %7
 [D,A,]>[D,A,][D,D] [E,B,]<[E,E][E,D] | [A,C]3- [A,C]2 | [A,C] | %10
 [E,B,]>[E,B,][E,B,] [E,B,]>[E,A,][E,G,] | [A,,A,]>[A,,A,][A,,A,] [A,,A,]2 [C,A,] | %12
 [E,G,]>[E,G,][E,G,] [E,G,]>[E,F,][E,G,] | [A,,A,]>[A,,A,][A,,A,] [A,,A,]2 E, | %14
 [E,E]>[E,E][E,E] [E,E]>[E,E][E,E] | [A,E]>[A,E][A,E] [A,E]2 [A,C] | %16
 [E,D]>[E,D][E,D] [E,D]<[E,E][E,D] | [A,,C]3- [A,,C]2 |] %18
V:4
 x | x6 | x6 | x6 | x6 | x6 | x6 | x6 | x5 | x | x6 | x6 | x6 | x5 E, | x6 | x6 | x6 | x5 |] %18

